X: 4239
T: NORAN KISTA
%R: jig
B: James Kerr "Merry Melodies" v.4 p.26 #239
Z: 2016 John Chambers <jc:trillian.mit.edu>
M: 6/8
L: 1/8
K: Bb
B |\
B2c d2B | e2c d2B | B2c d2B | A3 c2F |\
B2c d2B | e2c d2B | def e2c | B3- B2 :|
|: e |\
dcB A2G | F2G F2e | dcB A2F | G3 e2e |\
dcB A2G | F2F F2e | def F2A | B3- B2 :|

%%sep 1 1 500
%%sep 1 1 500

